!!!COM: Mozart, Wolfgang Amadeus
!!!CDT: 1756/01/27/-1791/12/05/
!!!CNT: German
!!!OTL: Piano Sonata No. 2 in C major
!!!SCT1: K<sup>1</sup> 330
!!!SCT2: K<sup>6</sup> 300h
!!!OMV: Mvmt. 2
!!!OMD: Andante cantabile
!!!ODT: 1782///
**kern	**kern	**dynam
*staff2	*staff1	*staff1/2
*clefF4	*clefG2	*clefG2
*>[A,A,B,B,C,C,D,D,E]	*>[A,A,B,B,C,C,D,D,E]	*>[A,A,B,B,C,C,D,D,E]
*>norep[A,B,C,D,E]	*>norep[A,B,C,D,E]	*>norep[A,B,C,D,E]
*>A	*>A	*>A
*k[b-]	*k[b-]	*k[b-]
*F:	*F:	*F:
*M3/4	*M3/4	*M3/4
*MM88	*MM88	*MM88
!	!LO:TX:b:i:t=dolce	!
8r	(8cc'L	.
4r	8cc'	.
.	8cc'J)	.
=1	=1	=1
2F 2A 2c	(8.ccL	.
.	16ffJk	.
.	8ccL	.
.	8a	.
4C 4G 4B-	8cc	.
.	8eJ)	.
=2	=2	=2
*^	*^	*
(4B-	4.D	(<4g	4.ryy	.
8A)	.	8f)	.	.
4.ryy	(>8AA 8AL	(8fL	4c	f
.	8GG 8G	8e 8g	.	.
.	8FF 8FJ)	8f 8aJ)	8c	.
*v	*v	*	*	*
=3	=3	=3	=3
8D (8dL	(8.b-L	4.f	.
8BB- 8B-J)	.	.	.
.	32ccLL	.	.
.	32ddJJJ	.	.
8AA 8A	8cc)	.	.
8r	(8fL	8r	p
4D	8e	4Bn	.
.	8fJ)	.	.
=4	=4	=4	=4
2C	4f (4a	2c	.
.	8e 8gL)	.	.
.	(<8g'<	.	f
*clefG2	*	*	*
4c 4e	8g'<	4ryy	.
.	8g'<J)	.	.
*	*v	*v	*
=5	=5	=5
.	32gqq	.
2Bn 2d 2f	(8.ggL	.
.	32ddLL	.
.	32bnJJJ	.
.	8gL)	.
.	(8g'	.
4c 4e	8g'	.
.	8g'J)	.
*clefF4	*	*
=6	=6	=6
.	32gqq	.
4D 4F (4Bn	[4gg	.
4E 4G 4c)	(16.ggLL]	.
.	64aaLL	p
.	64bbnJJJJ	.
.	16cccLL)	.
.	16bb'JJ	.
4r	16aa'LL	.
.	16gg'	.
.	16ff'	.
.	16ee'JJ	.
=7	=7	=7
*^	*^	*
8r	8ryy	4ryy	(>16cc#LL	.
.	.	.	16dd	.
8A 8d	8F	.	16ff	.
.	.	.	16aaJJ)	.
4c (4e	2G	(4.ccnn\	4.ryy	.
4d 4f)	.	.	.	.
.	.	16eeLL	8bn	.
.	.	16ddJJ)	.	.
*v	*v	*	*	*
=8	=8	=8	=8
4c 4e	4cc	4cc	.
8C	8r	8ryy	.
*	*v	*v	*
=:|!|:	=:|!|:	=:|!|:
*>B	*>B	*>B
8r	8cc	.
4r	(16ddLL	.
.	16cc)	.
.	(16b-X	.
.	16aJJ)	.
=9	=9	=9
4.c 4.e-	(4g	.
.	8f#)	.
!	!LO:TX:b:i:t=cresc.	!
8c (8e-L	(8f#L	.
8B- 8d	8g	.
8A 8c 8dJ)	8f# 8aJ)	.
=10	=10	=10
*^	*^	*
4c	4.G (4.d	(4f# (4a	2ryy	.
8B-)	.	8g) 8b-)	.	p
!	!	!LO:TX:b:i:t=cresc.	!	!
4.ryy	(>8B- 8d-L	(8eL	.	.
.	8A 8c	8fn	8ryy	.
.	8G 8B- 8cJ)	8gJ)	8en	.
*v	*v	*	*	*
=11	=11	=11	=11
8F 8A 8cL	(8aL	[2f	.
8DJ	8b-	.	.
4AA	8cc	.	.
.	8cc#J)	.	.
8BB-L	(16eeLL	8fL]	p
.	16dd)	.	.
8GGJ	16ccn	8gJ	.
.	16b-JJ	.	.
=12	=12	=12	=12
2C	(4a	(4f	.
.	8g)	8e)	.
.	4.ryy	(8cc'>L	<
4r	.	8cc'>	(
.	.	8cc'>J)	[
=13	=13	=13	=13
*	*^	*	*
8.CC 8.CL	4.bb-	2ryy	[>2.cc/	f
16DD' 16D'Jk	.	.	.	.
8EE' 8E'L	.	.	.	.
8FF' 8F'	8aaL	.	.	.
8GG' 8G'	8gg	8ryy	.	.
8AA' 8A'J	8ffJ	8a\	.	.
*	*v	*v	*	*
=14	=14	=14	=14
2BB- 2B-	(4ff	2g 2cc]	.
.	8eeL)	.	.
!	!LO:TX:b:i:t=dolce	!	!
.	(>8ee-'>	.	.
4r	8ee-'>	4ryy	.
.	8ee-'>J)	.	.
*	*v	*v	*
=15	=15	=15
4A 4c 4f	8.ee-TL	p
.	16ffJk	.
4A 4c 4f	8ggL	.
.	(16ffL	.
.	16ee-JJ)	.
4A 4e- 4f	(16ee-LL	.
.	16dd)	.
.	(16dd	.
.	16cc#JJ)	.
=16	=16	=16
2B- 2d 2f	(4cc#	.
.	8dd)	.
.	(16ffLL	.
.	16eenJJ	.
4r	16ggLL	.
.	16ff	.
.	16ee	.
.	16ddJJ)	.
=17	=17	=17
*^	*	*
4B- (4d	2F	(4dd	.
4A 4c)	.	8ccn)	.
.	.	(16.ffLL	.
.	.	32ccJJk)	.
!	!	!LO:TX:b:i:t=cresc.	!
4r	4ryy	(16.aaLL	.
.	.	32ffk)	.
.	.	(16.cc	.
.	.	32aJJk)	.
*v	*v	*	*
=18	=18	=18
*	*^	*
4.E 4.G 4.c	4.ryy	(>8.ccL	f
.	.	16bnJk	.
.	.	8b-)	.
8BB- 8B-L	(8gL	16.eLL	.
.	.	32cJJk	.
8AA 8A	8a	16.fLL	.
.	.	32B-JJk	.
8GG 8GJ	8b-J)	16.gLL	.
.	.	32B-JJk	.
=19	=19	=19	=19
*^	*	*	*
8FF 8F	4ryy	16cc'LL	8a	.
.	.	16dd'	.	.
8r	.	16ee'	8r	.
.	.	16ff'JJ	.	.
(4A	2C	(4.f	4.c	p
4B-)	.	.	.	.
.	.	16aLL	8e	.
.	.	16gJJ	.	.
*v	*v	*	*	*
=20	=20	=20	=20
4F 4A	4f	4f)	.
8FF	8r	8ryy	.
*	*v	*v	*
=:|!|:	=:|!|:	=:|!|:
*>C	*>C	*>C
*k[b-e-a-d-]	*k[b-e-a-d-]	*k[b-e-a-d-]
8r	(8c' 8a-'L	pp
4r	8c' 8a-'	.
.	8c') 8a-'J	.
=21	=21	=21
16FFLL>	4.c 4.a-	.
16F	.	.
16F	.	.
16FJJ	.	.
16FLL	.	.
16F	.	.
16F	(8B- 8gL	.
16FJJ	.	.
16FLL	8d- 8b-	.
16F	.	.
16F	8G) 8enJ	.
16FJJ	.	.
=22	=22	=22
16FFLL>	4.A- 4.f	.
16F	.	.
16F	.	.
16FJJ	.	.
16FLL	.	.
16F	.	.
16F	(8a-' 8cc'L<	.
16FJJ	.	.
16FLL	8a-' 8cc'	.
16F	.	.
16F	8a-' 8cc'J)	.
16FJJ	.	.
=23	=23	=23
*	*^	*
16EEnLL	(4.cc	2.g	.
16En	.	.	.
16E	.	.	.
16EJJ	.	.	.
16ELL	.	.	.
16E	.	.	.
16E	8dd-L	.	.
16EJJ	.	.	.
16ELL	8cc	.	.
16E	.	.	.
16E	8b-J)	.	.
16EJJ	.	.	.
=24	=24	=24	=24
.	(<32ccqq	.	.
16FFLL>	(8b-L)	8gL	.
16F	.	.	.
16F	8a-J)	8fJ	.
16FJJ	.	.	.
4F	2ryy	8r	.
.	.	(>8a-L	.
4r	.	8b-	.
.	.	8ccJ	.
*	*v	*v	*
=25	=25	=25
8r	8ee-L	.
8F 8A- 8d-L	8dd-J)	<
8F 8A- 8d-	8r	.
.	(32ccqq/	.
!	!LO:TX:b:i:t=cresc.	!
8F 8A- 8d-	8dd-L)	.
.	(32ccqq/	.
8F 8A- 8d-	8dd-)	.
.	(32ccqq/	.
8F 8A- 8d-J	8dd-J)	.
=26	=26	=26
2G 2B- 2d- 2e-	(8dd-L	f
.	32ee-qLLL>	.
.	32dd-q	.
.	32ccqJJJ	.
.	16dd-L	.
.	16ee-JJ	.
.	4.ff)	.
4r	.	.
.	(16ee-LL	p
.	16dd-JJ	.
=27	=27	=27
*^	*^	*
8ryy	8A-L	16ccLL<	2ryy	.
.	.	16ee-	.	.
8B-	8D-J	16dd-	.	.
.	.	16b-JJ)	.	.
(4c	2E-	(4.a-	.	.
4d-)	.	.	8ryy	.
.	.	16ccLL	8g	.
.	.	16b-JJ)	.	.
*v	*v	*	*	*
=28	=28	=28	=28
4A- 4c	4a-	4a-	.
8AA-	8r	8ryy	.
*	*v	*v	*
=:|!|:	=:|!|:	=:|!|:
*>D	*>D	*>D
8r	(8e-L	.
4r	8a-	.
.	8ccJ)	.
=29	=29	=29
8r	(4.ee-	.
(8A-L	.	.
8c	.	.
8e-	16dd-LL	.
.	16ccJJ	.
8F	8b-L)	.
8dnJ)	8a-'J	.
=30	=30	=30
8r	(4cc	.
(8E-L	.	.
8G	8b-)	.
8En 8B-J	(8cL	.
4F 4A-)	8f	.
.	8a-J)	.
=31	=31	=31
*^	*	*
8r	8ryy	(4.cc	sf
(8D-L	[8D-	.	.
8F	2D-]	.	.
8A-	.	16b-LL	.
.	.	16a-JJ	.
8B-	.	8gL)	p
8BnJ)	.	8f'J	.
*v	*v	*	*
=32	=32	=32
4.C 4.c	(4f (4a-	.
.	8en) 8g)	.
!	!LO:TX:b:i:t=cresc.	!
8r	(8ccL	.
8r	8ff	.
(>8AA-	8aa-J)	.
=33	=33	=33
8BB-XL	(8ggL	.
8B-XJ)	8ffJ)	.
(8BnL	8r	.
8cJ)	(8ccL	.
8r	8ff	.
(>8C	8aa-J)	.
=34	=34	=34
8D-L	(8ggL	.
8d-J	8ffJ)	.
8e-X)	8r	.
8C' 8c'L	8an' 8cc' 8ee-X' (8ff'L	f
8AAn' 8An'	8a' 8cc' 8ee-' 8ff'	.
8FF' 8F'J	8a' 8cc' 8ee-' 8ff'J)	.
=35	=35	=35
*	*^	*
4BB- 4B-	2r	16dd- (>16ffLL	.
.	.	16b- 16dd-)	.
.	.	16b- (>16dd-	.
.	.	16g 16b-JJ)	.
4C 4c	.	4f/ 4a-X/	.
4C	(16a-LL	4en	.
.	16g	.	.
.	16f	.	.
.	16gJJ)	.	.
=36	=36	=36	=36
4F	4f	4f	.
8FF	8r	8r	.
*	*v	*v	*
=:|!	=:|!	=:|!
*>E	*>E	*>E
8r	(8c' 8a-'L	pp
4r	8c' 8a-'	.
.	8c') 8a-'J	.
=37	=37	=37
16FFLL>	4.c 4.a-	.
16F	.	.
16F	.	.
16FJJ	.	.
16FLL	.	.
16F	.	.
16F	(8B- 8gL	.
16FJJ	.	.
16FLL	8d- 8b-	.
16F	.	.
16F	8G) 8enJ	.
16FJJ	.	.
=38	=38	=38
16FFLL>	4.A- 4.f	.
16F	.	.
16F	.	.
16FJJ	.	.
16FLL	.	.
16F	.	.
16F	(8a-' 8cc'L<	.
16FJJ	.	.
16FLL	8a-' 8cc'	.
16F	.	.
16F	8a-' 8cc'J)	.
16FJJ	.	.
=39	=39	=39
*	*^	*
16FFLL>	4.a- (4.cc	[2en	.
16F	.	.	.
16F	.	.	.
16FJJ	.	.	.
16FLL	.	.	.
16F	.	.	.
16F	8g 8b-L)	.	.
16FJJ	.	.	.
16FLL	8b- 8dd-	8eL]	.
16F	.	.	.
16F	8c 8enJ	8B-J	.
16FJJ	.	.	.
*	*v	*v	*
=40	=40	=40
4F	4A- 4c 4f	.
8r	8r	.
=-	=-	=-
*k[b-]	*k[b-]	*k[b-]
!	!LO:TX:b:i:t=dolce	!
8r	(8cc'L	.
4r	8cc'	.
.	8cc'J)	.
=41	=41	=41
2F 2A 2c	(8.ccL	.
.	16ffJk	.
.	8ccL	.
.	8a	.
4C 4G 4B-	8cc	.
.	8eJ)	.
=42	=42	=42
*^	*^	*
(4B-	4.D	(4g	4.ryy	.
8A)	.	8f)	.	.
(<8AA 8AL	4.ryy	(8fL	4c	f
8GG 8G	.	8e 8g	.	.
8FF) 8FJ	.	8f 8aJ)	8c	.
*v	*v	*	*	*
=43	=43	=43	=43
(8D 8dL	(8.b-L	4.f	.
8BB- 8B-J)	.	.	.
.	32ccLL	.	.
.	32ddJJJ	.	.
8AA 8A	8cc)	.	.
8r	(8fL	8r	p
4D	8e	4Bn	.
.	8fJ)	.	.
=44	=44	=44	=44
2C	4f (4a	2c	.
.	8e 8gL)	.	.
.	(<8g'<	.	f
*clefG2	*	*	*
4c 4e	8g'<	4ryy	.
.	8g'<J)	.	.
*	*v	*v	*
=45	=45	=45
.	32gqq/	.
2Bn 2d 2f	(8.ggL	.
.	32ddLL	.
.	32bnJJJ	.
.	8gL)	.
.	(8g'	.
4c 4e	8g'	.
.	8g'J)	.
*clefF4	*	*
=46	=46	=46
.	32gqq	.
4D 4F (4Bn	[4gg	.
4E 4G 4c)	16.ggLL]	.
.	(64aaLL	p
.	64bbnJJJJ	.
.	16cccLL)	.
.	16bb'JJ	.
4r	16aa'LL	.
.	16gg'	.
.	16ff'	.
.	16ee'JJ	.
=47	=47	=47
*^	*^	*
8r	8ryy	4ryy	(>16cc#LL	.
.	.	.	16dd	.
8A 8d	8F	.	16ff	.
.	.	.	16aaJJ)	.
4c (4e	2G	(>4.ccn\	4.ryy	.
4d 4f)	.	.	.	.
.	.	16eeLL	8bn	.
.	.	16ddJJ)	.	.
*v	*v	*	*	*
=48	=48	=48	=48
4c 4e	4cc	4cc	.
8C	2ryy	8r	.
8r	.	8cc	.
4r	.	(>16ddLL	.
.	.	16cc)	.
.	.	(>16b-X	.
.	.	16aJJ)	.
*	*v	*v	*
=49	=49	=49
4.c 4.e-	(4g	.
.	8f#)	.
!	!LO:TX:b:i:t=cresc.	!
8c (8e-L	(8f#L	.
8B- 8d	8g	.
8A 8c 8dJ)	8f# 8aJ)	.
=50	=50	=50
*^	*	*
(4c	4.G 4.d	(4f# (4a	.
8B-)	.	8g) 8b-)	p
!	!	!LO:TX:b:i:t=cresc.	!
4.ryy	(>8B- 8d-L	(8eL	.
.	8A 8c	8fn	.
.	8G 8B- 8cJ)	8gJ)	.
*v	*v	*	*
=51	=51	=51
*	*^	*
8F 8A 8cL	(8aL	[2f	.
8DJ	8b-	.	.
4AA	8cc	.	.
.	8cc#J)	.	.
8BB-L	(16eeLL	8fL]	.
.	16dd	.	p
8GGJ	(16ccn)	8gJ	.
.	16b-JJ	.	.
*	*v	*v	*
=52	=52	=52
2C	(4f 4a)	.
.	8e) 8g	.
.	(8cc'L	<
4r	8cc'	(
.	8cc'J)	[
=53	=53	=53
*	*^	*
*	*	*^	*
8.CC 8.CL	4.bb-	[>2.cc/	2ryy	f
16DD' 16D'Jk	.	.	.	.
8EE' 8E'L	.	.	.	.
8FF' 8F'	8aaL	.	.	.
8GG' 8G'	8gg	.	8ryy	.
8AA' 8A'J	8ffJ	.	8a\	.
*	*	*v	*v	*
=54	=54	=54	=54
2BB- 2B-	(4ff	2g 2cc]	.
.	8eeL)	.	.
!	!LO:TX:b:i:t=dolce	!	!
.	(8ee-'	.	.
4r	8ee-'	4r	.
.	8ee-'J)	.	.
*	*v	*v	*
=55	=55	=55
4A 4c 4f	8.ee-TL	p
.	16ffJk	.
4A 4c 4f	8ggL	.
.	(16ffL	.
.	16ee-JJ)	.
4A 4e- 4f	(16ee-LL	.
.	16dd)	.
.	(16dd	.
.	16cc#JJ)	.
=56	=56	=56
2B- 2d 2f	(4cc#	.
.	8dd)	.
.	(16ffLL	.
.	16eenJJ	.
4r	16ggLL	.
.	16ff	.
.	16ee	.
.	16ddJJ)	.
=57	=57	=57
*^	*	*
4B- (4d	2F	(4dd	.
4A 4c)	.	8ccn)	.
.	.	(16.ffLL	.
.	.	32ccJJk)	.
!	!	!LO:TX:b:i:t=cresc.	!
4r	4ryy	(16.aaLL	.
.	.	32ffk)	.
.	.	(16.cc	.
.	.	32aJJk)	.
*v	*v	*	*
=58	=58	=58
*	*^	*
4.E 4.G 4.c	4.ryy	(>8.ccL	f
.	.	16bnJk	.
.	.	8b-)	.
8BB- 8B-L	(8gL	16.eLL	.
.	.	32cJJk	.
8AA 8A	8a	16.fLL	.
.	.	32cJJk	.
8GG 8GJ	8b-J)	16.gLL	.
.	.	32cJJk	.
=59	=59	=59	=59
*^	*	*	*
8FF 8F	4ryy	16cc'LL	8a	.
.	.	16dd'	.	.
8r	.	16ee'	8r	.
.	.	16ff'JJ	.	.
(4A	2C	(4.f	4c	p
4B-)	.	.	8ryy	.
.	.	16aLL	8e	.
.	.	16gJJ	.	.
*v	*v	*	*	*
=60	=60	=60	=60
4F 4A	4f	4f)	.
8FF	8r	2ryy	.
8r	(<8c'< 8a'<L	.	pp
4r	8c'< 8a'<	.	.
.	8c'<) 8a'<J	.	.
*	*v	*v	*
=61	=61	=61
16FFLL>	4.c 4.a	.
16F	.	.
16F	.	.
16FJJ	.	.
16FLL	.	.
16F	.	.
16F	(8A 8fL	.
16FJJ	.	.
16FLL	8g 8b-	.
16F	.	.
16F	8e) 8gJ	.
16FJJ	.	.
=62	=62	=62
16FFLL>	4a 4cc	.
16F	.	.
16F	.	.
16FJJ	.	.
16DDLL	8r	.
16D	.	.
16D	8a' (8ff'L	<
16DJJ	.	(
16BBBnLL	8a' 8ff'	(
16BBn	.	(
16BB	8a' 8ff'J)	(
16BBJJ	.	[
=63	=63	=63
16CCLL	4.f 4.a	pp
16C	.	.
16C	.	.
16CJJ	.	.
16CLL	.	.
16C	.	.
16C	(8a 8ccL	.
16CJJ	.	.
16CLL	8g 8b-	.
16C	.	.
16C	8B-) 8gJ	.
16CJJ	.	.
=64	=64	=64
4FF	4A 4f	.
8r	8r	.
==	==	==
*-	*-	*-
!!!RDF**kern: < = below
!!!RDF**kern: > = above
!!!SMS: Alte Mozart-Ausgabe, Band 20, Breitkopf &amp; H&auml;rtel 1877-1883.
!!!ONB: Stich und Druck von Breitkopf &amp; H&auml;rtel in Leipzig
!!!ONB: Ausgegeben 1878
!!!ENC: Craig Stuart Sapp
!!!END: 2009/10/08/
!!!EEV: 2017/01/20/
!!!title: @{OTL}, K 330 (300h), @{OMV}
